X: 1
T: The Bird In The Bush
R: reel
M: 4/4
L: 1/8
K: Gmaj
|: d2eB dB~B2 | dBAB GAAG | EGAd BG~G2 | BGBd g2ge |
d2eB dB~B2 | dBAB ~G2GE | DEGA B2eB | dBAd BG~G2 :|
|: Bdef g2fg | afdf gfed | Bdef g~g2b | agab g~g2a |
bg~g2 agef | ~g2fe dBGE | DEGA B2eB | dBAd BG~G2 :|


Tune 629	Setting 13651

